lugar/img/footer/email.svg

<svg width="14" height="14" viewBox="0 0 14 14" fill="none" xmlns="http://www.w3.org/2000/svg">
<path d="M11.6667 2.33331H2.33333C1.69167 2.33331 1.1725 2.85831 1.1725 3.49998L1.16667 10.5C1.16667 11.1416 1.69167 11.6666 2.33333 11.6666H11.6667C12.3083 11.6666 12.8333 11.1416 12.8333 10.5V3.49998C12.8333 2.85831 12.3083 2.33331 11.6667 2.33331ZM11.6667 4.66665L7 7.58331L2.33333 4.66665V3.49998L7 6.41665L11.6667 3.49998V4.66665Z" fill="#BDBDBD"/>
</svg>

<svg width="14" height="14" fill="none" xmlns="http://www.w3.org/2000/svg"><path d="M11.667 2.333H2.333c-.641 0-1.16.525-1.16 1.167l-.006 7a1.17 1.17 0 001.166 1.167h9.334a1.17 1.17 0 001.166-1.167v-7a1.17 1.17 0 00-1.166-1.167zm0 2.334L7 7.583 2.333 4.667V3.5L7 6.417 11.667 3.5v1.167z" fill="#BDBDBD"/></svg>
